icon-themes/breeze_svg/cmd/lc_zoompagewidth.svg

<svg viewBox="0 0 24 24" xmlns="http://www.w3.org/2000/svg"><path d="m4 4v1 3h1v-3h3v-1h-3zm12 0v1h3v3h1v-3-1h-1zm-9 3v10h10v-10zm1 1h8v8h-8zm-2 2-2 2 2 2zm12 0v4l2-2zm-14 6v3 1h4v-1h-3v-3zm15 0v3h-3v1h4v-1-3z" fill="#4d4d4d"/></svg>

<svg xmlns="http://www.w3.org/2000/svg" viewBox="0 0 24 24">
 <path 
     style="fill:#4d4d4d" 
     d="M 4 4 L 4 5 L 4 8 L 5 8 L 5 5 L 8 5 L 8 4 L 5 4 L 4 4 z M 16 4 L 16 5 L 19 5 L 19 8 L 20 8 L 20 5 L 20 4 L 19 4 L 16 4 z M 7 7 L 7 17 L 17 17 L 17 7 L 7 7 z M 8 8 L 16 8 L 16 16 L 8 16 L 8 8 z M 6 10 L 4 12 L 6 14 L 6 10 z M 18 10 L 18 14 L 20 12 L 18 10 z M 4 16 L 4 19 L 4 20 L 8 20 L 8 19 L 5 19 L 5 16 L 4 16 z M 19 16 L 19 19 L 16 19 L 16 20 L 20 20 L 20 19 L 20 16 L 19 16 z "
     />
 </svg>
